static/images/icons/gradients/soc-2.svg

<svg width="40" height="40" viewBox="0 0 40 40" fill="none" xmlns="http://www.w3.org/2000/svg">
<path d="M18.1191 5.36656C18.7951 4.87542 19.1331 4.62985 19.5026 4.53497C19.8289 4.45119 20.1711 4.45119 20.4974 4.53497C20.8669 4.62985 21.2049 4.87542 21.8809 5.36656L33.336 13.6892C34.012 14.1803 34.35 14.4259 34.5544 14.748C34.7349 15.0324 34.8407 15.3579 34.8618 15.6941C34.8858 16.0748 34.7567 16.4722 34.4985 17.2669L30.123 30.7331C29.8648 31.5278 29.7357 31.9252 29.4925 32.2191C29.2778 32.4787 29.0009 32.6798 28.6877 32.8038C28.333 32.9443 27.9152 32.9443 27.0796 32.9443H12.9204C12.0848 32.9443 11.667 32.9443 11.3123 32.8038C10.9991 32.6798 10.7222 32.4787 10.5075 32.2191C10.2643 31.9252 10.1352 31.5278 9.87699 30.7331L5.50154 17.2669C5.24333 16.4722 5.11423 16.0748 5.13818 15.6941C5.15934 15.3579 5.26507 15.0324 5.44558 14.748C5.65001 14.4259 5.98801 14.1803 6.66401 13.6892L18.1191 5.36656Z" fill="url(#paint0_linear_1881_6173)" stroke="#FD366E" stroke-width="1.2" stroke-linecap="round" stroke-linejoin="round"/>
<g filter="url(#filter0_b_1881_6173)">
<path d="M18.8244 12.8541C19.5254 12.3448 20.4746 12.3448 21.1756 12.8541L26.4329 16.6738C27.1339 17.1831 27.4272 18.0858 27.1594 18.9098L25.1513 25.0902C24.8836 25.9142 24.1156 26.4721 23.2492 26.4721H16.7508C15.8843 26.4721 15.1164 25.9142 14.8487 25.0902L12.8406 18.9098C12.5728 18.0858 12.8661 17.1831 13.5671 16.6738L18.8244 12.8541Z" fill="white" fill-opacity="0.64"/>
<path d="M18.8244 12.8541C19.5254 12.3448 20.4746 12.3448 21.1756 12.8541L26.4329 16.6738C27.1339 17.1831 27.4272 18.0858 27.1594 18.9098L25.1513 25.0902C24.8836 25.9142 24.1156 26.4721 23.2492 26.4721H16.7508C15.8843 26.4721 15.1164 25.9142 14.8487 25.0902L12.8406 18.9098C12.5728 18.0858 12.8661 17.1831 13.5671 16.6738L18.8244 12.8541Z" stroke="#FD366E" stroke-width="1.2" stroke-linecap="round" stroke-linejoin="round"/>
</g>
<defs>
<filter id="filter0_b_1881_6173" x="8.14258" y="7.87109" width="23.7148" height="23.1992" filterUnits="userSpaceOnUse" color-interpolation-filters="sRGB">
<feFlood flood-opacity="0" result="BackgroundImageFix"/>
<feGaussianBlur in="BackgroundImageFix" stdDeviation="2"/>
<feComposite in2="SourceAlpha" operator="in" result="effect1_backgroundBlur_1881_6173"/>
<feBlend mode="normal" in="SourceGraphic" in2="effect1_backgroundBlur_1881_6173" result="shape"/>
</filter>
<linearGradient id="paint0_linear_1881_6173" x1="20.002" y1="4.40313" x2="20.002" y2="35.6031" gradientUnits="userSpaceOnUse">
<stop stop-color="#FD366E" stop-opacity="0"/>
<stop offset="1" stop-color="#FD366E" stop-opacity="0.32"/>
</linearGradient>
</defs>
</svg>

<svg xmlns="http://www.w3.org/2000/svg" width="40" height="40" fill="none"><path fill="url(#a)" stroke="#FD366E" stroke-linecap="round" stroke-linejoin="round" stroke-width="1.2" d="M18.12 5.367c.675-.492 1.013-.737 1.383-.832a2 2 0 0 1 .994 0c.37.095.708.34 1.384.832l11.455 8.322c.676.491 1.014.737 1.218 1.059a2 2 0 0 1 .308.946c.024.38-.105.778-.364 1.573l-4.375 13.466c-.258.795-.387 1.192-.63 1.486a2 2 0 0 1-.805.585c-.355.14-.773.14-1.608.14H12.92c-.835 0-1.253 0-1.608-.14a2 2 0 0 1-.804-.585c-.244-.294-.373-.691-.631-1.486L5.502 17.267c-.259-.795-.388-1.192-.364-1.573a2 2 0 0 1 .308-.946c.204-.322.542-.568 1.218-1.059l11.455-8.322Z"/><g filter="url(#b)"><path fill="#fff" fill-opacity=".64" d="M18.824 12.854a2 2 0 0 1 2.352 0l5.257 3.82a2 2 0 0 1 .726 2.236l-2.008 6.18a2 2 0 0 1-1.902 1.382h-6.498a2 2 0 0 1-1.902-1.382l-2.008-6.18a2 2 0 0 1 .726-2.236l5.257-3.82Z"/><path stroke="#FD366E" stroke-linecap="round" stroke-linejoin="round" stroke-width="1.2" d="M18.824 12.854a2 2 0 0 1 2.352 0l5.257 3.82a2 2 0 0 1 .726 2.236l-2.008 6.18a2 2 0 0 1-1.902 1.382h-6.498a2 2 0 0 1-1.902-1.382l-2.008-6.18a2 2 0 0 1 .726-2.236l5.257-3.82Z"/></g><defs><linearGradient id="a" x1="20.002" x2="20.002" y1="4.403" y2="35.603" gradientUnits="userSpaceOnUse"><stop stop-color="#FD366E" stop-opacity="0"/><stop offset="1" stop-color="#FD366E" stop-opacity=".32"/></linearGradient><filter id="b" width="23.715" height="23.199" x="8.143" y="7.871" color-interpolation-filters="sRGB" filterUnits="userSpaceOnUse"><feFlood flood-opacity="0" result="BackgroundImageFix"/><feGaussianBlur in="BackgroundImageFix" stdDeviation="2"/><feComposite in2="SourceAlpha" operator="in" result="effect1_backgroundBlur_1881_6173"/><feBlend in="SourceGraphic" in2="effect1_backgroundBlur_1881_6173" result="shape"/></filter></defs></svg>
